svg/signature_image.svg

<svg xmlns="http://www.w3.org/2000/svg" viewBox="0 0 24 24"><path d="M22 22H2v-2h20zM6.2 17.3l-1.4-1.4 1.4-1.4-.7-.7-1.4 1.4-1.4-1.4-.7.7 1.4 1.4L2 17.3l.7.7 1.4-1.4L5.5 18zM20 5H10a2 2 0 0 0-2 2v9a2 2 0 0 0 2 2h10a2 2 0 0 0 2-2V7a2 2 0 0 0-2-2M10 16l2.6-3.3 1.8 2.2 2.4-3.3L20 16z"/></svg>

<?xml version="1.0" encoding="UTF-8"?><!DOCTYPE svg PUBLIC "-//W3C//DTD SVG 1.1//EN" "http://www.w3.org/Graphics/SVG/1.1/DTD/svg11.dtd"><svg xmlns="http://www.w3.org/2000/svg" xmlns:xlink="http://www.w3.org/1999/xlink" version="1.1" id="mdi-signature-image" width="24" height="24" viewBox="0 0 24 24"><path d="M22,22H2V20H22V22M6.2,17.3L4.8,15.9L6.2,14.5L5.5,13.8L4.1,15.2L2.7,13.8L2,14.5L3.4,15.9L2,17.3L2.7,18L4.1,16.6L5.5,18L6.2,17.3M20,5H10A2,2 0 0,0 8,7V16A2,2 0 0,0 10,18H20A2,2 0 0,0 22,16V7A2,2 0 0,0 20,5M10,16L12.6,12.7L14.4,14.9L16.8,11.6L20,16H10Z" /></svg>
